X:1
T:Puer Nobis Nascitur, LM
T:Trier, 15th Century
T:Puer Nobis Nascitur, LM
T:Public Domain
C:Trier, 15th Century
Z:Public Domain
%%score 1 { ( 2 5 ) | ( 3 4 ) }
L:1/8
M:3/4
K:D
V:1 treble 
V:2 treble 
V:5 treble 
V:3 bass 
V:4 bass 
V:1
 D2 | D4 E2 | F4 G2 | F4 E2 | D4 D2 | A4 A2 | A2 B2 c2 | d4 d2 | d4 A2 | d4 d2 | c4 A2 | B4 B2 | %12
 A4 G2 | A4 F2 | E4 F2 | D4 C2 | D4 |] %17
V:2
 [A,D]2 | [B,D]4 [CE]2 | [DF]4 [DG]2 | (A,2 B,2) [CE]2 | D4 [B,D]2 | (D2 G2) [FA]2 | A2 B2 [Ec]2 | %7
 [Fd]4 [Gd]2 | [Fd]4 [EA]2 | (D2 F2) [Ed]2 | [Ec]4 [DA]2 | [B,B]4 [DB]2 | [DA]4 [B,G]2 | %13
 [EA]4 [DF]2 | [CE]4 [DF]2 | [B,D]4 [A,C]2 | [A,D]4 |] %17
V:3
 [D,F,]2 | [B,,F,]4 [A,,A,]2 | (D,2 C,2) [B,,D,]2 | (A,,2 G,,2) [A,,A,]2 | [D,F,]4 [G,D]2 | %5
 (F,2 E,2) [D,A,]2 | [C,A,]4 [A,,A,]2 | [D,A,]4 [D,B,]2 | [D,A,]4 [C,A,]2 | (B,,2 A,,2) [^G,,B,]2 | %10
 A,2 G,2 [D,F,]2 | [G,,G,]4 [B,,G,]2 | [D,F,]4 [E,G,]2 | [C,E,]4 [D,A,]2 | (A,,2 G,,2) [F,,A,]2 | %15
 (G,2 F,2) [A,,E,]2 | [D,,D,F,]4 |] %17
V:4
 x2 | x6 | A,4 x2 | x6 | x6 | D4 x2 | x6 | x6 | x6 | B,4 x2 | A,,4 x2 | x6 | x6 | x6 | A,4 x2 | %15
 G,,4 x2 | x4 |] %17
V:5
 x2 | x6 | x6 | F4 x2 | x6 | A4 x2 | E4 x2 | x6 | x6 | d4 x2 | x6 | x6 | x6 | x6 | x6 | x6 | x4 |] %17

